X:11
T:Dieu nous accueille en sa maison - A174
M:6/8
K:C
GGG|A2 G GFE|G3 EEE|E2 EDC|D3 GGG|A2 G GFE|G3 GcB|c3||
EEE|C2 C F2 F|E3 AAA|G2 G c2 c|B3 GcB|A2 G FEF|G3||
